X: 41832
T: Vincent's
R: hornpipe
M: 4/4
K: Gmajor
d>c|:B>d G2G2 c>B|A>GF>E D2 DC|B,>DG>D A>cA>F|(3GAG F>A G2 d>c|
B>d G2G2 e>d|^c>e A2A2 A>G|F>Ad>f e>gf>e|(3ded ^c>e d2 d>c:|
|:B>G (3GGG D>G (3GGG|E>C (3CCC A,>C (3CCC|A>Bc>B A>GF>E|(3DFA (3dAF D2 B>c|
d>G (3GGG e>G (3GGG|f>de>f g>dB>G|E>FG>A B>GA>F|G2B2G2 d>c:|

